src/lib/packages/icons/src/assets/filled/chart-line-dots.svg

<svg width="24" height="24" viewBox="0 0 24 24" fill="none" xmlns="http://www.w3.org/2000/svg">
<path d="M21 21H4.5C2.958 21 2 20.042 2 18.5V4C2 3.448 2.448 3 3 3C3.552 3 4 3.448 4 4V18.5C4 18.949 4.051 19 4.5 19H21C21.552 19 22 19.448 22 20C22 20.552 21.552 21 21 21ZM20.02 7.5H20.01C19.182 7.5 18.515 8.171 18.515 9C18.515 9.129 18.537 9.25195 18.567 9.37195L16.388 11.551C16.269 11.521 16.147 11.5 16.02 11.5H16.01C15.874 11.5 15.744 11.524 15.619 11.558L13.46 9.39905C13.495 9.27105 13.52 9.139 13.52 9C13.52 8.171 12.849 7.5 12.02 7.5H12.01C11.182 7.5 10.515 8.171 10.515 9C10.515 9.129 10.537 9.25195 10.567 9.37195L8.388 11.551C8.269 11.521 8.14699 11.5 8.01999 11.5H8.01001C7.18201 11.5 6.51501 12.171 6.51501 13C6.51501 13.829 7.19099 14.5 8.01999 14.5C8.84899 14.5 9.51999 13.829 9.51999 13C9.51999 12.861 9.49499 12.729 9.45999 12.601L11.621 10.4399C11.749 10.4749 11.881 10.5 12.02 10.5C12.148 10.5 12.27 10.479 12.388 10.449L14.567 12.627C14.536 12.747 14.515 12.87 14.515 13C14.515 13.829 15.191 14.5 16.02 14.5C16.849 14.5 17.52 13.829 17.52 13C17.52 12.861 17.495 12.729 17.46 12.601L19.621 10.4399C19.749 10.4749 19.881 10.5 20.02 10.5C20.849 10.5 21.52 9.829 21.52 9C21.52 8.171 20.849 7.5 20.02 7.5Z" fill="currentColor"/>
</svg>

<svg xmlns="http://www.w3.org/2000/svg" width="24" height="24" fill="none"><path fill="currentColor" d="M21 21H4.5C2.958 21 2 20.042 2 18.5V4a1 1 0 0 1 2 0v14.5c0 .449.051.5.5.5H21a1 1 0 0 1 0 2Zm-.98-13.5h-.01c-.828 0-1.495.671-1.495 1.5 0 .129.022.252.052.372l-2.179 2.179a1.499 1.499 0 0 0-.368-.051h-.01c-.136 0-.266.024-.391.058L13.46 9.399c.035-.128.06-.26.06-.399a1.5 1.5 0 0 0-1.5-1.5h-.01c-.828 0-1.495.671-1.495 1.5 0 .129.022.252.052.372L8.388 11.55a1.499 1.499 0 0 0-.368-.051h-.01c-.828 0-1.495.671-1.495 1.5a1.504 1.504 0 0 0 3.005 0c0-.139-.025-.271-.06-.399l2.161-2.161c.128.035.26.06.399.06.128 0 .25-.021.368-.051l2.179 2.178a1.48 1.48 0 0 0-.052.373 1.504 1.504 0 0 0 3.005 0c0-.139-.025-.271-.06-.399l2.161-2.161c.128.035.26.06.399.06a1.5 1.5 0 1 0 0-3Z"/></svg>
